svg/u1f474.svg

<svg viewBox="0 0 128 128" xmlns="http://www.w3.org/2000/svg">
  <path id="ears" d="M99.92,64.57H28.08C20.34,64.57,14,71.51,14,79.99s6.34,15.42,14.08,15.42h71.84 c7.75,0,14.08-6.94,14.08-15.42S107.66,64.57,99.92,64.57z" fill="#E59600"/>
  <linearGradient id="hair_x5F_grey_1_" gradientTransform="matrix(1 0 0 -1 0 128)" gradientUnits="userSpaceOnUse" x1="63.9999" x2="63.9999" y1="97.3885" y2="34.5792">
    <stop offset="0" stop-color="#E0E0E0"/>
    <stop offset="1" stop-color="#9E9E9E"/>
  </linearGradient>
  <path id="hair_x5F_grey" d="M117.14,50.27c-0.52-8.56-4.29-13.6-9.56-16.38 c-4.18-2.21-9.3-3-14.5-3H34.92c-5.2,0-10.34,0.79-14.52,3c-5.26,2.79-9.02,7.83-9.54,16.39c-0.7,11.48,3.7,21.66,10.59,26.5 c2.64,1.87,5.66,2.94,8.89,2.99c0.09,0.01,0.17,0.01,0.26,0.01c0.12,0,0.25,0,0.37-0.01H97.4c3.32,0,6.42-1.08,9.13-2.99 C113.43,71.95,117.84,61.76,117.14,50.27z" fill="url(#hair_x5F_grey_1_)"/>
  <path id="head" d="M64,12.21c-34.67,0-44.06,24.4-44.06,59.52c0,34.93,17.06,52.2,44.06,52.2 s44.06-17.27,44.06-52.2C108.06,36.61,98.67,12.21,64,12.21z" fill="#FFCA28"/>
  <path id="wrinkle" d="M40.63,105.31c-0.38,0-0.77-0.15-1.06-0.44c-0.59-0.59-0.59-1.54,0-2.12l9.53-9.53 c0.59-0.59,1.53-0.59,2.12,0s0.59,1.54,0,2.12l-9.53,9.53C41.4,105.16,41.01,105.31,40.63,105.31z" fill="#EDA600"/>
  <path id="wrinkle_1_" d="M87.37,105.31c-0.38,0-0.77-0.15-1.06-0.44l-9.53-9.53c-0.59-0.59-0.59-1.54,0-2.12 s1.54-0.59,2.12,0l9.53,9.53c0.59,0.59,0.59,1.54,0,2.12C88.14,105.16,87.75,105.31,87.37,105.31z" fill="#EDA600"/>
  <path id="wrinkle_2_" d="M42.91,90.5c-2.63,0-5.27-0.85-7.28-2.54c-0.63-0.53-0.71-1.48-0.18-2.11 c0.53-0.63,1.48-0.71,2.11-0.18c2.95,2.49,7.74,2.49,10.69,0c0.63-0.54,1.58-0.46,2.11,0.18c0.53,0.63,0.46,1.58-0.18,2.11 C48.18,89.65,45.55,90.5,42.91,90.5z" fill="#EDA600"/>
  <path id="wrinkle_3_" d="M85.09,90.5c-2.64,0-5.27-0.85-7.28-2.54c-0.63-0.53-0.71-1.48-0.18-2.11 c0.53-0.63,1.48-0.71,2.11-0.18c2.95,2.49,7.74,2.49,10.69,0c0.63-0.54,1.58-0.46,2.11,0.18c0.54,0.63,0.46,1.58-0.18,2.11 C90.36,89.65,87.73,90.5,85.09,90.5z" fill="#EDA600"/>
  <path id="wrinkle_4_" d="M42.98,54.37c-0.6,0-1.16-0.36-1.4-0.95c-0.31-0.77,0.07-1.64,0.84-1.95 c0.37-0.15,9.1-3.54,21.24-3.54c12.13,0,21.49,3.39,21.88,3.53c0.78,0.29,1.18,1.15,0.89,1.92c-0.29,0.78-1.15,1.18-1.93,0.89 c-0.09-0.03-9.28-3.35-20.84-3.35c-11.58,0-20.05,3.3-20.14,3.33C43.35,54.34,43.16,54.37,42.98,54.37z" fill="#EDA600"/>
  <path id="wrinkle_5_" d="M78.97,45.96c-0.15,0-0.3-0.02-0.45-0.07c-0.07-0.02-6.86-2.14-14.52-2.14 s-14.45,2.12-14.52,2.14c-0.79,0.25-1.63-0.19-1.88-0.98s0.19-1.63,0.98-1.88c0.29-0.09,7.28-2.28,15.42-2.28s15.13,2.19,15.42,2.28 c0.79,0.25,1.23,1.09,0.98,1.88C80.2,45.55,79.61,45.96,78.97,45.96z" fill="#EDA600"/>
  <g id="eyes">
    <ellipse cx="42.44" cy="77.34" fill="#404040" rx="6.48" ry="6.71"/>
    <ellipse cx="85.69" cy="77.34" fill="#404040" rx="6.48" ry="6.71"/>
  </g>
  <path id="nose" d="M69.07,89.56c-0.14-0.06-0.28-0.09-0.42-0.11h-9.3c-0.14,0.02-0.28,0.05-0.42,0.11 c-0.84,0.34-1.31,1.22-0.91,2.14c0.4,0.93,2.25,3.54,5.98,3.54s5.58-2.61,5.98-3.54S69.92,89.9,69.07,89.56z" fill="#E59600"/>
  <path id="mouth" d="M75.01,99.97c-4.19,2.49-17.91,2.49-22.1,0c-2.4-1.43-4.86,0.76-3.86,2.94 c0.98,2.15,8.47,7.13,14.95,7.13c6.47,0,13.87-4.98,14.85-7.13C79.84,100.72,77.42,98.54,75.01,99.97z" fill="#795548"/>
  <g id="eyebrows_x5F_gray_1_">
    <path d="M52.53,64.89c-1.27-1.91-4.23-4.69-9.95-4.69s-8.68,2.78-9.96,4.69c-0.56,0.85-0.42,1.82-0.03,2.41 c0.36,0.55,1.43,1.06,2.62,0.6s3.5-1.81,7.37-1.84c3.87,0.03,6.19,1.38,7.37,1.84c1.18,0.46,2.25-0.05,2.62-0.6 C52.96,66.71,53.1,65.73,52.53,64.89z" fill="#9E9E9E"/>
    <path d="M95.47,64.89c-1.27-1.91-4.23-4.69-9.96-4.69s-8.68,2.78-9.96,4.69c-0.56,0.85-0.42,1.82-0.03,2.41 c0.36,0.55,1.43,1.06,2.62,0.6s3.5-1.81,7.37-1.84c3.87,0.03,6.18,1.38,7.37,1.84c1.18,0.46,2.25-0.05,2.62-0.6 C95.89,66.71,96.03,65.73,95.47,64.89z" fill="#9E9E9E"/>
  </g>
</svg>

<svg viewBox="0 0 128 128" xmlns="http://www.w3.org/2000/svg">
  <defs>
    <linearGradient id="hair_x5F_grey_1_" gradientTransform="matrix(1 0 0 -1 0 0)" gradientUnits="userSpaceOnUse" x1="63.9999" x2="63.9999" y1="-30.6115" y2="-93.4208">
      <stop offset="0" stop-color="#E0E0E0"/>
      <stop offset="1" stop-color="#9E9E9E"/>
    </linearGradient>
  </defs>
  <path id="ears" d="M99.92,64.57 L28.08,64.57 C20.34,64.57 14,71.51 14,79.99 C14,88.47 20.34,95.41 28.08,95.41 L99.92,95.41 C107.67,95.41 114,88.47 114,79.99 C114,71.51 107.66,64.57 99.92,64.57 Z" fill="#E59600"/>
  <path id="hair_x5F_grey" d="M117.14,50.27 C116.62,41.71 112.85,36.67 107.58,33.89 C103.4,31.68 98.28,30.89 93.08,30.89 L34.92,30.89 C29.72,30.89 24.58,31.68 20.4,33.89 C15.14,36.68 11.38,41.72 10.86,50.28 C10.16,61.76 14.56,71.94 21.45,76.78 C24.09,78.65 27.11,79.72 30.34,79.77 C30.43,79.78 30.51,79.78 30.6,79.78 C30.72,79.78 30.85,79.78 30.97,79.77 L97.4,79.77 C100.72,79.77 103.82,78.69 106.53,76.78 C113.43,71.95 117.84,61.76 117.14,50.27 Z" fill="url(#hair_x5F_grey_1_)"/>
  <path id="head" d="M64,12.21 C29.33,12.21 19.94,36.61 19.94,71.73 C19.94,106.66 37,123.93 64,123.93 C91,123.93 108.06,106.66 108.06,71.73 C108.06,36.61 98.67,12.21 64,12.21 Z" fill="#FFCA28"/>
  <path id="wrinkle" d="M40.63,105.31 C40.25,105.31 39.86,105.16 39.57,104.87 C38.98,104.28 38.98,103.33 39.57,102.75 L49.1,93.22 C49.69,92.63 50.63,92.63 51.22,93.22 C51.81,93.81 51.81,94.76 51.22,95.34 L41.69,104.87 C41.4,105.16 41.01,105.31 40.63,105.31 Z" fill="#EDA600"/>
  <path id="wrinkle_1_" d="M87.37,105.31 C86.99,105.31 86.6,105.16 86.31,104.87 L76.78,95.34 C76.19,94.75 76.19,93.8 76.78,93.22 C77.37,92.64 78.32,92.63 78.9,93.22 L88.43,102.75 C89.02,103.34 89.02,104.29 88.43,104.87 C88.14,105.16 87.75,105.31 87.37,105.31 Z" fill="#EDA600"/>
  <path id="wrinkle_2_" d="M42.91,90.5 C40.28,90.5 37.64,89.65 35.63,87.96 C35,87.43 34.92,86.48 35.45,85.85 C35.98,85.22 36.93,85.14 37.56,85.67 C40.51,88.16 45.3,88.16 48.25,85.67 C48.88,85.13 49.83,85.21 50.36,85.85 C50.89,86.48 50.82,87.43 50.18,87.96 C48.18,89.65 45.55,90.5 42.91,90.5 Z" fill="#EDA600"/>
  <path id="wrinkle_3_" d="M85.09,90.5 C82.45,90.5 79.82,89.65 77.81,87.96 C77.18,87.43 77.1,86.48 77.63,85.85 C78.16,85.22 79.11,85.14 79.74,85.67 C82.69,88.16 87.48,88.16 90.43,85.67 C91.06,85.13 92.01,85.21 92.54,85.85 C93.08,86.48 93,87.43 92.36,87.96 C90.36,89.65 87.73,90.5 85.09,90.5 Z" fill="#EDA600"/>
  <path id="wrinkle_4_" d="M42.98,54.37 C42.38,54.37 41.82,54.01 41.58,53.42 C41.27,52.65 41.65,51.78 42.42,51.47 C42.79,51.32 51.52,47.93 63.66,47.93 C75.79,47.93 85.15,51.32 85.54,51.46 C86.32,51.75 86.72,52.61 86.43,53.38 C86.14,54.16 85.28,54.56 84.5,54.27 C84.41,54.24 75.22,50.92 63.66,50.92 C52.08,50.92 43.61,54.22 43.52,54.25 C43.35,54.34 43.16,54.37 42.98,54.37 Z" fill="#EDA600"/>
  <path id="wrinkle_5_" d="M78.97,45.96 C78.82,45.96 78.67,45.94 78.52,45.89 C78.45,45.87 71.66,43.75 64,43.75 C56.34,43.75 49.55,45.87 49.48,45.89 C48.69,46.14 47.85,45.7 47.6,44.91 C47.35,44.12 47.79,43.28 48.58,43.03 C48.87,42.94 55.86,40.75 64,40.75 C72.14,40.75 79.13,42.94 79.42,43.03 C80.21,43.28 80.65,44.12 80.4,44.91 C80.2,45.55 79.61,45.96 78.97,45.96 Z" fill="#EDA600"/>
  <path d="M48.92,77.34 A6.48 6.71 0 1 1 35.96,77.34 A6.48 6.71 0 1 1 48.92,77.34 Z" fill="#404040"/>
  <path d="M92.17,77.34 A6.48 6.71 0 1 1 79.21,77.34 A6.48 6.71 0 1 1 92.17,77.34 Z" fill="#404040"/>
  <path id="nose" d="M69.07,89.56 C68.93,89.5 68.79,89.47 68.65,89.45 L59.35,89.45 C59.21,89.47 59.07,89.5 58.93,89.56 C58.09,89.9 57.62,90.78 58.02,91.7 C58.42,92.63 60.27,95.24 64,95.24 C67.73,95.24 69.58,92.63 69.98,91.7 C70.38,90.77 69.92,89.9 69.07,89.56 Z" fill="#E59600"/>
  <path id="mouth" d="M75.01,99.97 C70.82,102.46 57.1,102.46 52.91,99.97 C50.51,98.54 48.05,100.73 49.05,102.91 C50.03,105.06 57.52,110.04 64,110.04 C70.47,110.04 77.87,105.06 78.85,102.91 C79.84,100.72 77.42,98.54 75.01,99.97 Z" fill="#795548"/>
  <path d="M52.53,64.89 C51.26,62.98 48.3,60.2 42.58,60.2 C36.86,60.2 33.9,62.98 32.62,64.89 C32.06,65.74 32.2,66.71 32.59,67.3 C32.95,67.85 34.02,68.36 35.21,67.9 C36.4,67.44 38.71,66.09 42.58,66.06 C46.45,66.09 48.77,67.44 49.95,67.9 C51.13,68.36 52.2,67.85 52.57,67.3 C52.96,66.71 53.1,65.73 52.53,64.89 Z" fill="#9E9E9E"/>
  <path d="M95.47,64.89 C94.2,62.98 91.24,60.2 85.51,60.2 C79.78,60.2 76.83,62.98 75.55,64.89 C74.99,65.74 75.13,66.71 75.52,67.3 C75.88,67.85 76.95,68.36 78.14,67.9 C79.33,67.44 81.64,66.09 85.51,66.06 C89.38,66.09 91.69,67.44 92.88,67.9 C94.06,68.36 95.13,67.85 95.5,67.3 C95.89,66.71 96.03,65.73 95.47,64.89 Z" fill="#9E9E9E"/>
</svg>
